X:60
T:WHRWAD2- Red House (Bonnie Annie)
S:Dancing Master (9th ed), 1695
L:1/4
M:4/4
K:Gm
Gg2(f/e/)|d2B2|Af2e/d/|c(e/c/) (d/c/)(B/A/)|Gg2(f/e/)|\
d2B2|(c/B/)(A/G/) (^F/G/) (A/B/)| [1BGG2:|[2 BGG|](B/c/)|\
(d/c/)(B/A/) (G/A/)(B/c/)|d2B2|(c/B/)(A/G/) (F/G/)(A/B/)|\
c2A2|(d/c/)(B/A/) (G/A/)(B/c/)|d2B2|(c/B/)(A/G/) (^F/G/) (A/B/)|\
BGG:|(B/c/)|ddd(B/c/|dddA/B/|cccA/B/|cccB/c/|ddd(B/c/|dddA/B/|(c/
B/)(A/G/) (^F/G/) (A/B/):|[1 BGG:|[2 BGG2|]

